packages/foundations/assets/icons/functional/images/audio & video/skip_backward_24.svg

<svg width="24" height="24" viewBox="0 0 24 24" fill="none" xmlns="http://www.w3.org/2000/svg">
<g clip-path="url(#clip0_2202_552)">
<path fill-rule="evenodd" clip-rule="evenodd" d="M16.956 5C17.4968 5.00418 18.0143 5.22088 18.3967 5.6033C18.7791 5.98572 18.9958 6.50319 19 7.044V16.956C19 18.131 18.013 19 16.98 19C16.557 19 16.158 18.86 15.805 18.624L9.352 13.668C8.812 13.292 8.507 12.658 8.507 12C8.507 11.342 8.812 10.708 9.352 10.332L15.805 5.376C16.158 5.141 16.557 5 16.956 5ZM17 7L10.5 12L17 17V7ZM6.997 17.003V6.973C6.99516 6.71189 6.89056 6.46201 6.70583 6.27747C6.5211 6.09293 6.27111 5.98857 6.01 5.987C5.47 5.987 5 6.433 5 6.973V17.003C5 17.543 5.446 17.99 6.01 17.99C6.55 17.99 6.997 17.544 6.997 17.003Z" fill="#1A1C1F"/>
</g>
<defs>
<clipPath id="clip0_2202_552">
<rect width="24" height="24" fill="white"/>
</clipPath>
</defs>
</svg>

<svg xmlns="http://www.w3.org/2000/svg" width="24" height="24" fill="none"><g clip-path="url(#a)"><path fill="#1A1C1F" fill-rule="evenodd" d="M16.956 5A2.06 2.06 0 0 1 19 7.044v9.912C19 18.131 18.013 19 16.98 19c-.423 0-.822-.14-1.175-.376l-6.453-4.956c-.54-.376-.845-1.01-.845-1.668s.305-1.292.845-1.668l6.453-4.956c.353-.235.752-.376 1.151-.376M17 7l-6.5 5 6.5 5zM6.997 17.003V6.973a.993.993 0 0 0-.987-.986c-.54 0-1.01.446-1.01.986v10.03c0 .54.446.987 1.01.987.54 0 .987-.446.987-.987" clip-rule="evenodd"/></g><defs><clipPath id="a"><path fill="#fff" d="M0 0h24v24H0z"/></clipPath></defs></svg>
